Obsidian-SemiLight/actions/24s/project-development.svg

<svg viewBox="0 0 24 24" xmlns="http://www.w3.org/2000/svg"><path d="m4 4v4 11 1h1 9 5 1v-1-5-6-4zm1 4h14v6 5h-5-9z" fill="#4d4d4d"/></svg>

<svg xmlns="http://www.w3.org/2000/svg" viewBox="0 0 24 24">
  <defs id="defs3051">
    <style type="text/css" id="current-color-scheme">
      .ColorScheme-Text {
        color:#4d4d4d;
      }
      </style>
  </defs>
 <path style="fill:currentColor;fill-opacity:1;stroke:none" 
     d="M 4 4 L 4 8 L 4 19 L 4 20 L 5 20 L 14 20 L 19 20 L 20 20 L 20 19 L 20 14 L 20 8 L 20 4 L 4 4 z M 5 8 L 19 8 L 19 14 L 19 19 L 14 19 L 5 19 L 5 8 z "
     class="ColorScheme-Text"
     />
</svg>
